X: 133027
T: PATE BAILLIE'S JIG
Q: "Scotch Jig."
R: Jig.
%R: jig
B: James Kerr "Merry Melodies" v.1 p.33 s.0 #27
Z: 2016 John Chambers <jc:trillian.mit.edu>
M: 6/8
L: 1/8
K: Em
ue |\
vE2vE uE2ud | B2A B2d | AFD DEF | AFD DEF |\
E2E E2d | B2A B2A | B^cd AFD | E3 E2 ::\
uF |\
vG2vB BcB | G2B BcB | F2A D2A | FAF DEF |
G2B BcB | G2B BcB | dcB AGF | E3 E2 :|\
u^d |\
eee EEE | eee EEE | ddd DDD | ddd DDD |\
eee EEE | eee EEE |
dcB AGF | E3 E2 u^d |\
eee EEE | eee EEE | ddd DDD | ddd DDD |\
GGG FFF | EEE eee | dcB AGF | E3 E2 |]

%%sep 1 1 500
%%sep 1 1 500

